ui/StatusQ/src/assets/img/icons/emojiCategories/smileys.svg

<svg fill="none" height="20" viewBox="0 0 20 20" width="20" xmlns="http://www.w3.org/2000/svg"><g fill="#939ba1"><path clip-rule="evenodd" d="m10 18.5c4.6944 0 8.5-3.8056 8.5-8.5 0-4.69442-3.8056-8.5-8.5-8.5-4.69442 0-8.5 3.80558-8.5 8.5 0 4.6944 3.80558 8.5 8.5 8.5zm0 1.5c5.5228 0 10-4.4772 10-10 0-5.52285-4.4772-10-10-10-5.52285 0-10 4.47715-10 10 0 5.5228 4.47715 10 10 10z" fill-rule="evenodd"/><path d="m8 7.5c0 1.10457-.67157 2-1.5 2s-1.5-.89543-1.5-2 .67157-2 1.5-2 1.5.89543 1.5 2z"/><path d="m15 7.5c0 1.10457-.6716 2-1.5 2s-1.5-.89543-1.5-2 .6716-2 1.5-2 1.5.89543 1.5 2z"/><path clip-rule="evenodd" d="m6.21503 12.583c-.40963-.0392-.69319.3937-.43612.715.78957.9869 2.10091 1.952 4.22109 1.952 2.1202 0 3.4315-.9651 4.2211-1.952.2571-.3213-.0265-.7542-.4361-.715-.9685.0926-2.2302.167-3.785.167-1.55478 0-2.81647-.0744-3.78497-.167zm-2.42199-1.2579c.27326-.3137.70187-.481 1.14676-.411.89472.1408 2.58134.3359 5.0602.3359 2.4789 0 4.1655-.1951 5.0602-.3359.4449-.07.8735.0973 1.1468.411.2827.3246.393.8061.1855 1.2665-.6338 1.4064-2.4 4.1584-6.3925 4.1584-3.99253 0-5.75873-2.752-6.39251-4.1584-.20749-.4604-.09717-.9419.18555-1.2665z" fill-rule="evenodd"/></g></svg>

<svg width="20" height="20" viewBox="0 0 20 20" fill="none" xmlns="http://www.w3.org/2000/svg">
<path fill-rule="evenodd" clip-rule="evenodd" d="M10 18.5C14.6944 18.5 18.5 14.6944 18.5 10C18.5 5.30558 14.6944 1.5 10 1.5C5.30558 1.5 1.5 5.30558 1.5 10C1.5 14.6944 5.30558 18.5 10 18.5ZM10 20C15.5228 20 20 15.5228 20 10C20 4.47715 15.5228 0 10 0C4.47715 0 0 4.47715 0 10C0 15.5228 4.47715 20 10 20Z" fill="#939BA1"/>
<path d="M8 7.5C8 8.60457 7.32843 9.5 6.5 9.5C5.67157 9.5 5 8.60457 5 7.5C5 6.39543 5.67157 5.5 6.5 5.5C7.32843 5.5 8 6.39543 8 7.5Z" fill="#939BA1"/>
<path d="M15 7.5C15 8.60457 14.3284 9.5 13.5 9.5C12.6716 9.5 12 8.60457 12 7.5C12 6.39543 12.6716 5.5 13.5 5.5C14.3284 5.5 15 6.39543 15 7.5Z" fill="#939BA1"/>
<path fill-rule="evenodd" clip-rule="evenodd" d="M6.21503 12.583C5.8054 12.5438 5.52184 12.9767 5.77891 13.298C6.56848 14.2849 7.87982 15.25 10 15.25C12.1202 15.25 13.4315 14.2849 14.2211 13.298C14.4782 12.9767 14.1946 12.5438 13.785 12.583C12.8165 12.6756 11.5548 12.75 10 12.75C8.44522 12.75 7.18353 12.6756 6.21503 12.583ZM3.79304 11.3251C4.0663 11.0114 4.49491 10.8441 4.9398 10.9141C5.83452 11.0549 7.52114 11.25 10 11.25C12.4789 11.25 14.1655 11.0549 15.0602 10.9141C15.5051 10.8441 15.9337 11.0114 16.207 11.3251C16.4897 11.6497 16.6 12.1312 16.3925 12.5916C15.7587 13.998 13.9925 16.75 10 16.75C6.00747 16.75 4.24127 13.998 3.60749 12.5916C3.4 12.1312 3.51032 11.6497 3.79304 11.3251Z" fill="#939BA1"/>
</svg>
